!!!COM: Bach, Johann Sebastian
!!!OTA: Das wohltemperirte Clavier
!!!OPR: Das wohltemperierte Klavier
!!!OTL: Fuga 21, Vol. 2
!!!XEN: The Well-Tempered Clavier, Volume 2, Fugue 21.
!!!ONB: B-flat major, 3-part
!!!SCT: BWV 890b
!!!YEC: Copyright 1994, David Huron
!!!YEM: Rights to all derivative electronic formats reserved.
**kern	**kern	**kern
*staff2	*staff1	*staff1
*clefF4	*clefG2	*clefG2
*k[b-e-]	*k[b-e-]	*k[b-e-]
*M3/4	*M3/4	*M3/4
*B-:	*B-:	*B-:
*MM110	*MM110	*MM110
=1	=1	=1
2.r	8r	2.r
.	8cc	.
.	8b-	.
.	8a	.
.	8b-	.
.	8f	.
=2	=2	=2
2.r	8d	2.r
.	8g	.
.	8f	.
.	8e-	.
.	8f	.
.	8d	.
=3	=3	=3
2.r	8B-	2.r
.	8e-	.
.	{8e-	.
.	8d}	.
.	{8d	.
.	8c}	.
=4	=4	=4
2.r	8c	2.r
.	8f	.
.	{8f	.
.	8e-}	.
.	{8e-	.
.	8d}	.
=5	=5	=5
2.r	4d	8r
.	.	8gg
.	4c	8ff
.	.	8ee-
.	4B-	8ff
.	.	8b-
=6	=6	=6
2.r	4c	8a
.	.	8dd
.	4d	8cc
.	.	8b-
.	4e-	8cc
.	.	8a
=7	=7	=7
2.r	4d	8f
.	.	8b-
.	4en	8b-
.	.	8a
.	[4f	8a
.	.	8g
=8	=8	=8
2.r	4f]	8g
.	.	8cc
.	8en	8cc
.	8d	8b-
.	4e-	8b-
.	.	8a
=9	=9	=9
2.r	8f	4a
.	8e-	.
.	8d	[2a-
.	8c	.
.	8d	.
.	8f	.
=10	=10	=10
2.r	4B-	8a-]
.	.	8gg
.	4d	8ff
.	.	8ee-
.	4B-	8ff
.	.	8a-
=11	=11	=11
2.r	8e-	4g
.	8d	.
.	8c	[2gg
.	8B-	.
.	8c	.
.	8e-	.
=12	=12	=12
2.r	4A	8gg]
.	.	8ff
.	4c	8ee-
.	.	8dd
.	4f	8ee-
.	.	8ccc
=13	=13	=13
8r	4B-	[2.dd
8c	.	.
8B-	4d	.
8A	.	.
8B-	4f	.
8F	.	.
=14	=14	=14
8D	[2.b-	8dd]
8G	.	8ee-
8F	.	8dd
8E-	.	8cc
8F	.	8dd
8D	.	8ff
=15	=15	=15
8BB-	2.b-_	8aa-
8E-	.	8gg
8E-	.	8gg
8D	.	8ff
8D	.	8ff
8C	.	8ee-
=16	=16	=16
8C	2b-]	8ee-
8F	.	8dd
8F	.	8dd
8E-	.	8cc
8E-	4a	8cc
8D	.	8b-
=17	=17	=17
8D	8b-	[2.b-
8G	8e-	.
8G	8e-	.
8F	8d	.
8F	8d	.
8E-	8c	.
=18	=18	=18
4E-	8c	4b-]
.	8f	.
4F	8f	[2a
.	8e-	.
4FF	8e-	.
.	8d	.
=19	=19	=19
4BB-	2.d	8a]
.	.	8a
[2B-	.	8g
.	.	8f
.	.	8g
.	.	8b-
=20	=20	=20
8B-]	4c	4en
8A	.	.
8A	4d	4f
8G	.	.
8G	4en	4g
8F	.	.
=21	=21	=21
8F	4f	8a
8G	.	8b-
8F	4r	8a
8En	.	8g
8F	4r	8a
8C	.	8cc
=22	=22	=22
8AA	8r	[2.ff
8D	8b-	.
8C	8a	.
8BB-	8g	.
8C	8a	.
8AA	8cc	.
=23	=23	=23
8FF	8ee-	2.ff_
8BB-	8dd	.
8BB-	8dd	.
8AA	8cc	.
8AA	8cc	.
8GG	8b-	.
=24	=24	=24
8GG	8b-	2ff]
8C	8a	.
8C	8a	.
8BB-	8g	.
8BB-	8g	[4ee-
8AA	8f	.
=25	=25	=25
4AA	2.f	8ee-]
.	.	8ee-
[2BB-	.	8dd
.	.	8cc
.	.	8dd
.	.	8b-
=26	=26	=26
4BB-]	4en	8g
.	.	8dd
2AA	2e-	8cc
.	.	8b-
.	.	8cc
.	.	8a
=27	=27	=27
8BB-	4d	4f
8A	.	.
8G	4d-	[2b-
8F	.	.
8G	4B-	.
8En	.	.
=28	=28	=28
8C	4en	4b-]
8G	.	.
8F	4f	4a
8En	.	.
8F	4r	4r
8D	.	.
=29	=29	=29
4BBn	8r	2.r
.	8a-	.
4BB	8a-	.
.	8g	.
4BB	8g	.
.	8f	.
=30	=30	=30
4BB-	2.en	8r
.	.	8dd
4BB-	.	8cc
.	.	8b-
4BB-	.	8cc
.	.	8a
=31	=31	=31
4AA	4f	8f
.	.	4a
4BB-	4d	.
.	.	8g
4C	4G	8f
.	.	8en
=32	=32	=32
4FF	8A	8f
.	8g	8r
4r	8f	4r
.	8en	.
4r	8f	4r
.	8c	.
=33	=33	=33
4r	8A	4r
.	8d	.
2AA	8c	8c
.	8B-	8d
.	8c	[4e-
.	8A	.
=34	=34	=34
2.BB-	8F	4e-]
.	8B-	.
.	8B-	8d
.	8A	8en
.	8A	[4f
.	8G	.
=35	=35	=35
2.C	8G	4f]
.	8c	.
.	8c	8en
.	8B-	8f
.	8B-	[4g
.	8A	.
=36	=36	=36
8FF	4A	8g]
8F	.	8f
8F	4B-	4g
8E-	.	.
8E-	[4c	8.a
8D	.	.
.	.	32b-
.	.	32cc
=37	=37	=37
4D	8c]	4f
.	8B-	.
4C	8B-	4e-
.	8A-	.
4BB-	8A-	4d
.	8G	.
=38	=38	=38
8r	4G	4e-
8E-	.	.
8E-	4An	4c
8D	.	.
8D	[4B-	4d
8C	.	.
=39	=39	=39
8C	8B-]	4e-
8F	8A	.
8F	8A	4d
8E-	8G	.
8E-	8G	[4c
8D	8F	.
=40	=40	=40
8D	4F	8c]
8E-	.	8ccc
8D	4r	8bb-
8C	.	8aa
8D	4r	8bb-
8F	.	8ff
=41	=41	=41
4B-	4r	8dd
.	.	8gg
8BB-	2f	8ff
8C	.	8ee-
[4D	.	8ff
.	.	8dd
=42	=42	=42
4D]	2.g	8b-
.	.	8ee-
8C	.	8ee-
8D	.	8dd
[4E-	.	8dd
.	.	8cc
=43	=43	=43
4E-]	2.a	8cc
.	.	8ff
8D	.	8ff
8E-	.	8ee-
[4F	.	8ee-
.	.	8dd
=44	=44	=44
8F]	8d	[2.dd
8D	8cc	.
8En	8b-	.
8F#	8a	.
[4G	8b-	.
.	8g	.
=45	=45	=45
8G]	[2.e-	8dd]
8B-	.	8dd
8A	.	8cc
8G	.	8b-
8A	.	8cc
8c	.	8a
=46	=46	=46
4D	8e-]	4f#
.	8d	.
4En	8d	4g
.	8c	.
4F#	8c	[4a
.	8B-	.
=47	=47	=47
8G	2B-	4a]
8A	.	.
8G	.	4dd
8F#	.	.
8G	4r	4b-
8D	.	.
=48	=48	=48
8BB-	4r	4g
8E-	.	.
8D	4c	4a
8C	.	.
8D	4A	4f#
8BB-	.	.
=49	=49	=49
8GG	8B-	2.g
8C	8G	.
8C	8en	.
8BB-	8f#	.
8BB-	[4g	.
8AA	.	.
=50	=50	=50
8AA	4g]	2.a
8D	.	.
8D	8f#	.
8C	8g	.
8C	[4a	.
8BB-	.	.
=51	=51	=51
2BB-	8a]	4d
.	8g	.
.	8g	[2dd
.	8fn	.
4BBn	8f	.
.	8e-	.
=52	=52	=52
4C	8e-	4dd]
.	8a-	.
4c	8a-	8cc
.	8g	8dd
4B-	8g	[4ee-
.	8f	.
=53	=53	=53
4A-	[2.f	8ee-]
.	.	8ee-
4B-	.	8dd
.	.	8cc
4BB-	.	8dd
.	.	8b-
=54	=54	=54
[2.E-	8f]	8g
.	8f	8a-
.	8e-	8g
.	8d	8f
.	8e-	8g
.	8B-	8b-
=55	=55	=55
8E-]	8G	8e-
8A-	8c	8f
8G	8B-	8e-
8F	8A-	8d
8G	8B-	8e-
8E-	8G	8b-
=56	=56	=56
4.C	8E-	2.ee-
.	8A-	.
.	8A-	.
8D	8G	.
[4E-	8G	.
.	8F	.
=57	=57	=57
4E-]	8F	2.ff
.	8B-	.
8D	8B-	.
8E-	8A-	.
[4F	8A-	.
.	8G	.
=58	=58	=58
4F]	4G	8b-
.	.	8dd-
8En	4g	8dd-
8F	.	8cc
[4G	4en	8cc
.	.	8b-
=59	=59	=59
8G]	4c	[2.a-
8F	.	.
8F	8d	.
8E-	8e-	.
8E-	4f	.
8D	.	.
=60	=60	=60
4D	2.Bn	8a-]
.	.	8g
4G	.	8f
.	.	8e-
4GG	.	8f
.	.	8d
=61	=61	=61
8C	4c	4e-
8BB-	.	.
8BB-	4e-	4g
8AA-	.	.
8AA-	[4f	4cc
8GG	.	.
=62	=62	=62
4GG	8f]	8bn
.	8a-	8cc
4BBn	8g	[2dd
.	8f	.
4GG	8g	.
.	8d	.
=63	=63	=63
[2.C	8e-	8dd]
.	8F	8dd
.	8E-	8cc
.	8D	8bn
.	8E-	8cc
.	8G	8g
=64	=64	=64
8C]	4c	8e-
8D	.	8a-
2E-	8G	8g
.	8A-	8f
.	[4B-	8g
.	.	8e-
=65	=65	=65
2.F	4B-]	8c
.	.	8f
.	8An	8f
.	8Bn	8e-
.	[4c	8e-
.	.	8d
=66	=66	=66
2.G	4c]	8d
.	.	8g
.	8Bn	8g
.	8c	8f
.	[4d	8f
.	.	8e-
=67	=67	=67
4C	8d]	2e-
.	8d	.
4E-	8c	.
.	8Bn	.
4C	8c	[4ee-
.	8G	.
=68	=68	=68
4F	4A	8ee-]
.	.	8ff
4A	4c	8ee-
.	.	8dd
4F	[4f	8ee-
.	.	8cc
=69	=69	=69
8BB-	4f]	[2.dd
8c	.	.
8B-	4f	.
8A	.	.
8B-	4b-	.
8G	.	.
=70	=70	=70
8En	4g	4dd]
8A	.	.
8A	4en	8cc
8G	.	8b-
8G	4a	[4cc
8F#	.	.
=71	=71	=71
8F#	2d	4cc]
8A	.	.
8G	.	8b-
8F#	.	8a
8G	4g	[4b-
8E-	.	.
=72	=72	=72
8C	4e-	4b-]
8Fn	.	.
8F	4c	8a-
8E-	.	8g
8E-	4f	[4a-
8D	.	.
=73	=73	=73
8D	2B-	4a-]
8F	.	.
8E-	.	8g
8D	.	8f
8E-	4e-	[4g
8C	.	.
=74	=74	=74
8AA	4c	4g]
8D	.	.
8D	4A	8f
8C	.	8e-
8C	4d	[4f
8BB-	.	.
=75	=75	=75
8BB-	2G	4f]
8C	.	.
8C	.	8e-
8BB-	.	8d
8BB-	4c	4e-
8AA	.	.
=76	=76	=76
2.AA	4F	8e-
.	.	8f
.	4C	8e-
.	.	8d
.	[4F	8e-
.	.	8c
=77	=77	=77
4BB-	8F]	4d
.	8c	.
4GG	8B-	2en
.	8A	.
4C	8B-	.
.	8G	.
=78	=78	=78
4.FF	8A	8f
.	8r	8gg
.	4r	8ff
8GG	.	8een
*	*	*strophe
*	*	*^
*	*	*S/sic	*S/ossia
8AA	4r	8ff	8ff
8BB-	.	8ccxx	8b-xx
*	*	*S/fin	*S/fin
*	*	*v	*v
*	*	*S-
=79	=79	=79
8C	2.r	8a
8D	.	8dd
8E-	.	8cc
8D	.	8b-
8E-	.	8cc
8C	.	8a
=80	=80	=80
2.D	4r	8f
.	.	8b-
.	8d	8b-
.	8e-	8a-
.	[4f	8a-
.	.	8g
=81	=81	=81
2.E-	4f]	8g
.	.	8cc
.	8e-	8cc
.	8f	8b-
.	[4g	8b-
.	.	8an
=82	=82	=82
2.F	8g]	8a
.	8f	8b-
.	8e-	[2cc
.	8d	.
.	8e-	.
.	8c	.
=83	=83	=83
2.BB-	8d	4cc]
.	8g	.
.	8g	8b-
.	8f	8cc
.	8f	[4dd
.	8en	.
=84	=84	=84
2.C	8en	4dd]
.	8a	.
.	8a	8cc
.	8g	8dd
.	8g	[4ee-
.	8f#	.
=85	=85	=85
2.D	8f#	8ee-]
.	8g	8dd
.	8a	8cc
.	8g	8b-
.	8a	8cc
.	8f#	8a
=86	=86	=86
8GG	4g	8b-
8A	.	8cc
8G	4r	8b-
8F#	.	8a
8G	4r	8b-
8E-	.	8g
=87	=87	=87
8C	8r	[2.ee-
8D	8b-	.
8C	8a	.
8BB-	8g	.
8C	8g	.
8AA	8f	.
=88	=88	=88
8FF	8f 8a 8cc	8ee-]
8G	8r	8b-
8F	4r	8a
8E-	.	8g
8F	4r	8a
8D	.	8f
=89	=89	=89
8BB-	8r	2dd
8C	8a	.
8BB-	8b-	.
8AA	8cc	.
8BB-	8dd	4r
8GG	8ff	.
=90	=90	=90
4EEn	8bb-	2.r
.	8dd-	.
4EE	8dd-	.
.	8cc	.
4EE	8cc	.
.	8b-	.
=91	=91	=91
4EE-	2.a	8r
.	.	8gg
4EE-	.	8ff
.	.	8ee-
4EE-	.	8ff
.	.	8dd
=92	=92	=92
4DD	4b-	8b-
.	.	4dd
4EE-	4g	.
.	.	8cc
4FF	4c	8b-
.	.	8a
=93	=93	=93
2.BB-	2.d	2.b-
==	==	==
*-	*-	*-
!!!CDT: 1685/3/-1750/7/28
!!!OCY: Deutschland
!!!PPP: Leipzig
!!!ODT: 1738//-1742//
!!!PDT: 1739//-1742//
!!!AFR: fuga; fugue
!!!AST: polyphony
!!!AMT: simple triple
!!!SCA: Bach-Werke-Verzeichnis
!!!YOR: Bach Gesellschaft
!!!SMS: British Library, various
!!!AIN: cemba; clavi
!!!EEV: 1.0
!!!RDT: 1986 December 14
!!!YER: 1994 August 10
!!!EFL: 45/48
!!!VTS: 3104368385
